X:965
T:Smash the Windows
N:"Collected by J.O'Neill"
B:O'Neill's 965
Z:Transcribed by Dan G. Petersen, dangp@post6.tele.dk
M:6/8
L:1/8
K:D
A,|DED F2A|d2f ecA|G2B F2A|E2F GFE|
DED F2A|d2f ecA|Bgf fedc|d3 d2:|
a|a2f d2e|f2g agf|g2e c2d|e2f gfe|
f2d g2e|a2f bag|fed cde|d3 d z a|
agf fed|Adf afd|gfe ecA|Ace gfe|
fed gfe|agf bag|fed cde|d3 d2|]
